X: 20791
T: la NEIGE
T: the Snow
Q: "Allegro"
%R: jig
B: "Edinburgh Repository of Music" v.2 p.79 #1
F: http://digital.nls.uk/special-collections-of-printed-music/pageturner.cfm?id=87776133
Z: 2015 John Chambers <jc:trillian.mit.edu>
M: 6/8
L: 1/8
K: D
a !segno!|"_P."\
(a2d') (f2a) | (df)d A2f | "_>"(age) "_>"(age) | "_>"(b2a) f2a | (ad')a (fa)f |
(df)d A2f | "_>"(ag)e (ba)f | d3- d2 H|] f | f3- (f^e)^g | f3- (f^e)^g | (f^g)^a (bc')b |
(^a^g)f ^efg | f3- f^e^g | f3- f^e^g | fff fff | =ggg "_D.C. dal segno"^ggg !segno!|]
